!!!!SEGMENT: pl-wtm--r-274-m--001_moniuszko-stanislaw--cztery-piesni-nabozne-kyrie.krn
!!!cenid: 18xx:1731
!!!COM: Moniuszko, Stanisław
!!!COM-rismID: pe30008351
!!!CDT: 1819/05/05-1872/06/04
!!!CNT: Polish
!!!OPR: Cztery pieśni nabożne
!!!OTL: Kyrie
!!!OMV: 001
!!!PDT:
!!!AGN: Sacred; Mass
!!!SMS-siglum: PL-Wtm
!!!SMS-shelfmark: R 274/M
!!!SMS-shelfwork: 001-001 M
!!!SMS-variant:
!!!SMS-altvar:
!!!NIFC-rismSourceID: 1001097038
!!!NIFC-islandoraID:
!!!URL-pdf-islandora:
!!!URL-scan:
!!!ONB-nifc:
!!!AIN: 1 alto 1 bass 2 organ 1 soprn 1 tenor
!!!key:
**kern	**kern	**dynam	**kern	**text	**dynam	**kern	**text	**dynam	**kern	**text	**dynam	**kern	**text	**dynam
*part6	*part5	*part5	*part4	*part4	*part4	*part3	*part3	*part3	*part2	*part2	*part2	*part1	*part1	*part1
*staff6	*staff5	*	*staff4	*staff4	*	*staff3	*staff3	*	*staff2	*staff2	*	*staff1	*staff1	*
*Iorgan	*Iorgan	*	*Ibass	*	*	*Itenor	*	*	*Ialto	*	*	*Isoprn	*	*
*I"Organo	*I"Organo	*	*I"Basso	*	*	*I"Tenore (Klucz C)	*	*	*I"Alto (Klucz C)	*	*	*I"Soprano (Klucz C)	*	*
*clefF4	*clefG2	*	*clefF4	*	*	*clefC4	*	*	*clefC3	*	*	*clefC1	*	*
*k[b-]	*k[b-]	*	*k[b-]	*	*	*k[b-]	*	*	*k[b-]	*	*	*k[b-]	*	*
*d:	*d:	*	*d:	*	*	*d:	*	*	*d:	*	*	*d:	*	*
*M4/4	*M4/4	*	*M4/4	*	*	*M4/4	*	*	*M4/4	*	*	*M4/4	*	*
*met(c)	*met(c)	*	*met(c)	*	*	*met(c)	*	*	*met(c)	*	*	*met(c)	*	*
=1	=1	=1	=1	=1	=1	=1	=1	=1	=1	=1	=1	=1	=1	=1
*^	*^	*	*	*	*	*	*	*	*	*	*	*	*	*
!	!	!LO:TX:a:t=Kyrie.	!	!	!	!	!	!	!	!	!	!	!	!	!	!
!	!	!LO:TX:a:t=Largo.	!	!LO:DY:b	!	!	!	!	!	!	!	!	!	!	!	!
8r	1rFF	4d/	2rDyy	p	1ryy	.	.	1ryy	.	.	1ryy	.	.	1ryy	.	.
16D\LL	.	.	.	.	.	.	.	.	.	.	.	.	.	.	.	.
16E\JJ	.	.	.	.	.	.	.	.	.	.	.	.	.	.	.	.
8F\L	.	8d/L	.	.	.	.	.	.	.	.	.	.	.	.	.	.
8D\J	.	[8d/J	.	.	.	.	.	.	.	.	.	.	.	.	.	.
4A\	.	4.a/ 4.e/	8d\L]	.	.	.	.	.	.	.	.	.	.	.	.	.
.	.	.	16c\L	.	.	.	.	.	.	.	.	.	.	.	.	.
.	.	.	16B-\JJ	.	.	.	.	.	.	.	.	.	.	.	.	.
!LO:TX:t=P:problem=mixed beam	!	!	!	!	!	!	!	!	!	!	!	!	!	!	!	!
8AA/L	.	.	4c\	.	.	.	.	.	.	.	.	.	.	.	.	.
8A\J	.	8a/ 8e-X/	.	.	.	.	.	.	.	.	.	.	.	.	.	.
*	*	*v	*v	*	*	*	*	*	*	*	*	*	*	*	*	*
=2	=2	=2	=2	=2	=2	=2	=2	=2	=2	=2	=2	=2	=2	=2	=2
4BB-/	1r	8b-/L 8d/	.	1ryy	.	.	1ryy	.	.	1ryy	.	.	1ryy	.	.
.	.	8dd/ 8f/	.	.	.	.	.	.	.	.	.	.	.	.	.
8E/L	.	8cc/ [8g/	.	.	.	.	.	.	.	.	.	.	.	.	.
8En/J	.	8b-/J 8g/] 8c/	.	.	.	.	.	.	.	.	.	.	.	.	.
!LO:TX:t=P:problem=mixed beam	!	!	!	!	!	!	!	!	!	!	!	!	!	!	!
8F\L	.	8.a/L 8.f/	.	.	.	.	.	.	.	.	.	.	.	.	.
8FF/	.	.	.	.	.	.	.	.	.	.	.	.	.	.	.
.	.	16b-/K 16g/	.	.	.	.	.	.	.	.	.	.	.	.	.
8F\	.	8cc/ 8a/	.	.	.	.	.	.	.	.	.	.	.	.	.
8E\J	.	8cc#X/J 8g/	.	.	.	.	.	.	.	.	.	.	.	.	.
=3	=3	=3	=3	=3	=3	=3	=3	=3	=3	=3	=3	=3	=3	=3	=3
*	*	*^	*	*	*	*	*	*	*	*	*	*	*	*	*
*	*	*	*^	*	*	*	*	*	*	*	*	*	*	*	*	*
4D/	1r	4dd/	8f\L	4rEEyy	.	1ryy	.	.	1ryy	.	.	1ryy	.	.	1ryy	.	.
.	.	.	16g\L	.	.	.	.	.	.	.	.	.	.	.	.	.	.
.	.	.	16a\JJ	.	.	.	.	.	.	.	.	.	.	.	.	.	.
8D-X/L	.	4ee/	8b-\L	4g\	.	.	.	.	.	.	.	.	.	.	.	.	.
16C/L	.	.	8cc\J	.	.	.	.	.	.	.	.	.	.	.	.	.	.
16BB-/JJ	.	.	.	.	.	.	.	.	.	.	.	.	.	.	.	.	.
!LO:TX:t=P:problem=mixed beam	!	!	!	!	!	!	!	!	!	!	!	!	!	!	!	!	!
(<4AA/	.	4ff/	8cc\L	4f\	.	.	.	.	.	.	.	.	.	.	.	.	.
.	.	.	8cc\J	.	.	.	.	.	.	.	.	.	.	.	.	.	.
8BB-/)	.	8dd/L	8b-\L	4rGGyy	.	.	.	.	.	.	.	.	.	.	.	.	.
8E/	.	8b-/J	8g\J	.	.	.	.	.	.	.	.	.	.	.	.	.	.
*	*	*v	*v	*v	*	*	*	*	*	*	*	*	*	*	*	*	*
!!LO:LB:g=original
=4	=4	=4	=4	=4	=4	=4	=4	=4	=4	=4	=4	=4	=4	=4	=4
8F\L	2rFFFyy	8.a/L 8.f/	.	1r	.	.	1r	.	.	1r	.	.	1r	.	.
8G\	.	.	.	.	.	.	.	.	.	.	.	.	.	.	.
.	.	16g/K 16e/	.	.	.	.	.	.	.	.	.	.	.	.	.
8A\	.	8f/ 8d/	.	.	.	.	.	.	.	.	.	.	.	.	.
8AA/J	.	8e/J 8c#X/	.	.	.	.	.	.	.	.	.	.	.	.	.
(<4G/	(>4AA\	(4e/ (4c#/	.	.	.	.	.	.	.	.	.	.	.	.	.
!	!	!LO:TX:b:t=fine.	!	!	!	!	!	!	!	!	!	!	!	!	!
8F/)	8D\)	8d/))	.	.	.	.	.	.	.	.	.	.	.	.	.
8r	8rCCyy	8r	.	.	.	.	.	.	.	.	.	.	.	.	.
*v	*v	*	*	*	*	*	*	*	*	*	*	*	*	*	*
=5	=5	=5	=5	=5	=5	=5	=5	=5	=5	=5	=5	=5	=5	=5
*	*	*	*^	*	*	*^	*	*	*^	*	*	*^	*	*
!LO:TX:b:t=ped.	!	!	!	!	!	!LO:DY:a	!	!	!	!LO:DY:rj:a	!	!	!	!LO:DY:rj:a	!	!	!	!LO:DY:a
1D\	2d/ 2A</ 2F</	.	4D\	2rAAAyy	4. Już	p	4D/	2rEEyy	3. Niech	p	4d\	2rGGyy	2. przy	p	4d/	2rFyy	1. Na	p
.	.	.	8D\	.	nie	.	8D/	.	ta	.	8d\	.	niej	.	8d/	.	stop-	.
.	.	.	8D\	.	ob-	.	8D/	.	o-	.	8d\	.	do	.	8d/	.	-niach	.
.	4f/ 4d/ 4A</	.	4D\	4rCCyy	-rzę-	.	4A\	4rGGyy	-fia-	.	4d\	4rBByy	Cie-	.	4f/	4rFyy	Twe-	.
*	*	*	*	*cue	*	*	*	*cue	*	*	*	*cue	*	*	*	*cue	*	*
.	4d/ 4A</ 4F</	.	4D\	8D/	-dem	.	4A\	8A/	-ra	.	4d\	8d/	-bie	.	4f/	8f\	-go	.
.	.	.	.	8D/	daw-	.	.	8A/	w nie-	.	.	8d/	.	.	.	8f\	.	.
*	*	*	*v	*v	*	*	*v	*v	*	*	*v	*v	*	*	*	*	*	*
*	*	*	*	*	*	*	*	*	*	*	*	*v	*v	*	*
=6	=6	=6	=6	=6	=6	=6	=6	=6	=6	=6	=6	=6	=6	=6
*^	*^	*	*	*	*	*	*	*	*	*	*	*	*	*
[2A/	4D\	4.a/	2e\	.	[8.D\	-ne-	.	[8.A\	-bies-	.	[8.e\	lud	.	[8.a\	u-	.
.	.	.	.	.	16D\]	.	.	16A\]	.	.	16e\]	pod-	.	16a\]	-pa-	.
.	4C#X\	.	.	.	8C#X/	-go	.	8A\	-kie	.	8e\	-no-	.	8a\	-da-	.
.	.	8g/	.	.	8C#/	Koś-	.	8A\	pod-	.	8e\	-si	.	8g\	-my	.
4.A/]	4.D\	(<4g/	4.d\	.	4D\	-cio-	.	4A\	-wo-	.	4d\	pie-	.	4g\	tro-	.
.	.	8f/)	.	.	8D\	-ła	.	8A\	-je	.	8d\	-nie,	.	8f\	nu,	.
!	!	!	!	!	!	!	!LO:DY:a	!	!	!LO:DY:a	!	!	!LO:DY:a	!	!	!LO:DY:a
8F/	8r	8f/	[8rAyy	.	8F\	.	f	8F/	pod-	f	8f\	O!	f	8f^\	po-	f
!!LO:LB:g=original
=7	=7	=7	=7	=7	=7	=7	=7	=7	=7	=7	=7	=7	=7	=7	=7	=7
*	*^	*	*	*	*	*	*	*	*	*	*	*	*	*	*	*
!	!	!	!	!	!	!	!	!	!	!	!LO:DY:a	!	!	!LO:DY:a	!	!	!LO:DY:a
(4B-/ 4F/	8.BB-\L	2rBBBByy	(<4b-/ 4f/ 4d/	2ryy]	.	8BB-/L	Krew	.	4F/	-nie-	<	4d\	Niech	<	4b-\	-tęż-	<
.	.	.	.	.	.	8D/J	.	.	.	.	.	.	.	.	.	.	.
.	16D\Jk	.	.	.	.	.	.	.	.	.	.	.	.	.	.	.	.
8A/)	8F\	.	8a/L 8f/ 8c/)	.	.	8F\	na	.	8F/	-sie	.	8c\	go	.	8a\	-ny,	.
8F/	8r	.	8f/J	.	.	8F\	oł-	.	8F/	pod	.	8f\	łas-	.	8f\	po-	.
*	*	*	*	*2\right	*	*	*	*	*	*	*	*	*	*	*	*	*
4d/	4B-\ 4BB-\	4rBBBByy	4dd/	2f\	.	(4B-\	-ta-	.	(4B-/ 4F/	nie-	.	[4f\	-ka-	.	(4dd\	-tęż-	.
8c/L	8A\L	8AA\L	8cc/L	.	.	8A\)	.	.	8c\)	-sie	.	8f\]	-wie	.	8cc\)	.	.
8d/J	8B-\J	8BB-\J	8b-/J	.	.	8B-\	-rzach	.	8d\	się	[[	8f\	twa	[[	8b-\	-ny	[[
*	*v	*v	*	*	*	*	*	*	*	*	*	*	*	*	*	*	*
=8	=8	=8	=8	=8	=8	=8	=8	=8	=8	=8	=8	=8	=8	=8	=8	=8
*	*	*	*	*	*^	*	*	*^	*	*	*^	*	*	*^	*	*
4c/	4C\	4a/	4f\	.	4c\	8.c/	le-	.	4c\	8.c/	z ka-	.	4f\	8.f/	dob-	.	4a\	8.a/	Sa-	.
.	.	.	.	.	.	16C/	-je	.	.	16c/	.	.	.	16f/	.	.	.	16a/	.	.
8B-/L	4C\	8g/L	2e\	.	8C\	4rFFFyy	się	.	8c\	4rEEyy	-dzi-	.	8e\	4rGGyy	-roć	.	8g\	4rDyy	-ba-	.
8G/J	.	8cc/J	.	.	8C\	.	byd-	.	8c\	.	-deł	.	8e\	.	wy-	.	8cc\	.	-oth	.
!	!	!	!	!	!	!	!	!LO:DY:a	!	!	!	!LO:DY:a	!	!	!	!LO:DY:a	!	!	!	!LO:DY:a
4.c/	(>4C\	(<4b-/	.	.	4C\	2rFFFyy	-lę-	>	4c\	2rEEyy	wo-	>	4e\	2rGGyy	-słu-	>	4b-\	2rDyy	Bo-	>
.	8F\)	8a/)	8f\L	.	8F\	.	-ca	]	8c\	.	-nią	]	8f\	.	-cha	]	8a\	.	-że!	]
8r	8rEEyy	8r	8e-X\J	.	8r	.	.	.	8r	.	.	.	8r	.	.	.	8r	.	.	.
*	*	*	*	*	*v	*v	*	*	*	*	*	*	*v	*v	*	*	*v	*v	*	*
*	*	*	*	*	*	*	*	*v	*v	*	*	*	*	*	*	*	*
=9	=9	=9	=9	=9	=9	=9	=9	=9	=9	=9	=9	=9	=9	=9	=9	=9
!	!	!	!	!	!	!	!LO:DY:rj	!	!	!LO:DY:rj	!	!	!LO:DY:rj:a	!	!	!LO:DY:a
2F/	4BB-\	4d/	4.B-\	.	4BB-/	lecz	p	4B-\	niech	p	4d\	wlej	p	4b-\	Ja-	p
.	8D\L	4f/	.	.	8D/	Sy-	.	8B-\	łzy	.	8f\	w ser-	.	8f/	-każ	.
.	8BB-\J	.	8d\	.	8BB-/	-na	.	8B-\	po-	.	8d\	-ca	.	8f/	o-	.
!LO:SIC:s:v=E-	!	!LO:SIC:s:v=e-	!	!	!	!	!	!	!	!	!	!	!	!	!	!
8G/	(>4E\	(4g/	4e\	.	4E-X\	Twe-	.	4B-\	-ku-	.	4e-X\	na-	.	4g/	-fia-	.
4B-/	.	.	.	.	.	.	.	.	.	.	.	.	.	.	.	.
.	8BB-\)	8f/L)	8d\	.	8BB-/	-go	.	8B-\	-ty	.	8d\	-sze	.	8f/	-ra.	.
8r	8rEEyy	8f/J	8r	.	8r	.	.	8r	.	.	8r	.	.	8r	.	.
!!LO:PB:g=original
=10	=10	=10	=10	=10	=10	=10	=10	=10	=10	=10	=10	=10	=10	=10	=10	=10
!LO:SIC:s:v=E-	!	!	!	!	!	!	!LO:DY:a	!	!	!LO:DY:a	!	!	!LO:DY:a	!	!	!LO:DY:a
8B-/	8E\L	8g/L	8rFyy	.	8E-X\	Twój	<	8B-\	od	<	8g\	po-	<	8g\	mil-	<
8ryy	8D\	8a/ 8f#X/	4d\	.	8D\	lud	.	8d\	kar	.	8f#X\	-boż-	.	8a\	-szą	.
4ryy	8G\	8b-/ 8g/	.	.	8G\	Ci	.	8d\	nas	.	8g\	-noś-	.	8b-\	Ci	.
.	8F\J	8cc/J 8a/	8f#\	.	8F\	po-	.	8f\	o-	.	8a\	-ci	.	8cc\	być	.
!	!	!LO:SIC:s:v=fn	!	!	!	!	!	!	!	!	!	!	!	!	!	!
2ryy	(4B-\	(4dd/ 4b-/	(4f#\	.	4B-\	-świę-	[	4f\	-chro-	[	4b-\	du-	[	4dd\	mo-	[
!	!	!LO:SIC:s:v=fn	!	!	!	!	!	!	!	!	!	!	!	!	!	!
.	8BB-/)	8b-/ 8f#/)	8d\)	.	8BB-/	-ca	.	8d\	-nią	.	8f#\	-cha	.	8b-\	-że	.
.	8r	8r	8rFyy	.	8r	.	.	8r	.	.	8r	.	.	8r	.	.
=11	=11	=11	=11	=11	=11	=11	=11	=11	=11	=11	=11	=11	=11	=11	=11	=11
!	!	!	!	!	!	!	!LO:DY:rj:a	!	!	!LO:DY:rj:a	!	!	!LO:DY:rj:a	!	!	!LO:DY:a:rj
2ryy	4B-\	2dd/	8f\L 8d\	.	4B-\	Czyż	f	8d\L	i	f	8f\L	i	f	4dd\	nad	f
.	.	.	8g\ 8e\	.	.	.	.	8en\J	.	.	8g\J	.	.	.	.	.
.	8A\L	.	8a\ [8f\	.	8A\L	nas	.	8f\	u-	.	8a\	o-	.	8dd\	tę	.
.	8G#X\J	.	8b-\J 8f\]	.	8G#X\J	po-	.	8f\	-bła-	.	8b-\	-bróć	.	8dd\	o-	.
*	*2\right	*	*	*	*	*	*	*	*	*	*	*	*	*	*	*
4d/	2A\	4ff/	4a\	.	[4A\	-jed-	.	(4d\	-ga-	.	(4a\	na	.	(4ff\	-fia-	.
8e/L	.	8ee/L	8g\L	.	8A\]	-nać	.	8e\)	.	.	8g\)	nas	.	8ee\)	rę	.
8f/J	.	8dd/J	8f\J	.	8A\	z Chry-	.	8f\	-ją	.	8f\	oj-	.	8dd\	Chrys-	.
=12	=12	=12	=12	=12	=12	=12	=12	=12	=12	=12	=12	=12	=12	=12	=12	=12
8e/L	4.AA\	8a/L	4g\	.	[8A\	-stu-	.	(8e\	mi-	.	[8g\	-cow-	.	(8a\	-tu-	.
!	!	!	!	!	!	!	!LO:DY:a	!	!	!LO:DY:a	!	!	!LO:DY:a	!	!	!
8d/	.	8b-/	.	.	8A\]	.	>	8d\)	-ło-	>	8g\]	.	>	8b-\)	.	>
8c#X/	.	8a/	4e\	.	8A\	-sem	.	8c#X\	-sier-	.	8e\	-skie	.	8a\	-sa	.
8A/J	8C#X\	8g/J	.	.	8C#X/	nie-	.	8A\	-dzie	.	8e\	wej-	.	8g\	Za-	.
(4B-X/	4.D\	(4g/ 4e/	(4c#X\	.	4D/	-zdo-	]	4A\	Two-	]	4e\	-rze-	]	4g\	-ko-	]
8A/)	.	8f/)	8d\)	.	8D/	-ła?	.	8A\	-je	.	8d\	-nie	.	8f\	-nu	.
8r	8rCCyy	8r	8rFyy	.	8r	.	.	8r	.	.	8r	.	.	8r	.	.
*	*	*v	*v	*	*	*	*	*	*	*	*	*	*	*	*	*
!!LO:LB:g=original
=13	=13	=13	=13	=13	=13	=13	=13	=13	=13	=13	=13	=13	=13	=13	=13
!	!	!	!	!	!	!LO:DY:a	!	!	!LO:DY:a	!	!	!LO:DY:a	!	!	!LO:DY:a
2ryy	2GG\	4b-/ 4d/	.	4GG/	Czyż	pp	4B-\	i	pp	4d\	i	pp	4dd\	nad	pp
.	.	8a/L 8c/	.	8GG/	nas	.	8A\	u-	.	8d\	o-	.	8cc\	tę	.
.	.	8g/J 8B-/	.	8GG/	po-	.	8G\	-bła-	.	8d\	-bróc	.	8b-\	o-	.
4A/	[2AA\	4f/	.	[4AA/	-jed-	.	(4F/	-ga-	.	(4d\	na	.	(4a\	-fia-	.
8B-/L 8G/	.	8e/L	.	8AA/]	-nać	.	8G/)	.	.	8e\)	nas	.	8g\)	rę	.
8Bn/J 8G#X/	.	8d/J	.	8AA/	z Chry-	.	8G#X/	-ją	.	8d\	oj-	.	8f\	Chrys-	.
=14	=14	=14	=14	=14	=14	=14	=14	=14	=14	=14	=14	=14	=14	=14	=14
*	*	*^	*	*	*	*	*^	*	*	*	*	*	*^	*	*
8A/L	2AA\]	4e/	[2c#X\	.	[8AA/	-stu-	.	8A/	8A\L	mi-	.	[8c#X\	-cow-	.	8e/L	8e\	-tu-	.
8B-/	.	.	.	.	8AA/]	.	.	8B-/	8B-\J	-ło-	.	8c#\]	.	.	8g/J	8g\	.	.
8A/	.	8f/L	.	.	8AA/	-sem	.	8A/	4rBByy	-sier-	.	8c#\	-skie	.	8f/	4rFyy	-sa	.
8G/J	.	8e/J	.	.	8AA/	nie	.	8G/	.	-dzie	.	8c#\	wej-	.	8e/	.	Za-	.
4G/	4AA\	4e/	4c#\]	.	4AA/	zdo-	.	4G/	2rGGyy	Two-	.	4c#\	-rze-	.	4e/	2rDyy	-ko-	.
8F/	8D\	8d/	8d\	.	8D/	-ła?	.	8F/	.	-je.	.	8d\	-nie	.	8d/	.	-nu	.
!	!	!LO:TX:b:t=DC. al fine	!	!	!	!	!	!	!	!	!	!	!	!	!	!	!	!
8r	8rEEyy	8r	8rFyy	.	8r	.	.	8r	.	.	.	8r	.	.	8r	.	.	.
*v	*v	*	*	*	*	*	*	*v	*v	*	*	*	*	*	*v	*v	*	*
*	*v	*v	*	*	*	*	*	*	*	*	*	*	*	*	*
==	==	==	==	==	==	==	==	==	==	==	==	==	==	==
*-	*-	*-	*-	*-	*-	*-	*-	*-	*-	*-	*-	*-	*-	*-
!!!system-decoration: [(s1,s2,s3,s4)][(s5,s6)]
!!!RDF**kern: > = above
!!!RDF**kern: < = below
!!!EED: Leszek Kubiak
!!!EEV: 2021-04-20
!!!ENC: Marcin Jachim
!!!END: 2021-04-07
!!!YEC: Copyright 2022 Narodowy Instytut Fryderyka Chopina (https://polishscores.org)
!!!YEM: Licence CC BY 4.0 (https://creativecommons.org/licenses/by/4.0)
